X: 278
T: 279. Ach Gott und Herr / Cantata BWV 48 Ich elender Mensch, wer wird mich erl\"osen
N: Derived from chor279.krn
C: Johann Sebastian Bach
%%abc-version 2.0
%%abcx-abcm2ps-target-version 5.9.1 (29 Sep 2008)
%%abc-creator hum2abc beta
%%abcx-conversion-date 2019/03/11 17:28:19
%%abc-edited-by Craig Stuart Sapp
%%humdrum-veritas 4187534281
%%humdrum-veritas-data 3340716464
%%
%%barnumbers 0
L: 1/4
M: C
%%staves [1 2 3 4]
V: 1 clef=treble
V: 2 clef=treble
V: 3 clef=treble-8
V: 4 clef=bass
K: Bb
[V:1] B [I:setbarnb 1]| 
[V:2] F | 
[V:3] d | 
[V:4] B,, | 
[V:1] AG!fermata!FF | 
[V:2] F=E!fermata!CC | 
[V:3] cc/B/!fermata!AA | 
[V:4] F,C,!fermata!F,,E, | 
[V:1] GA!fermata!Bc | 
[V:2] F^F!fermata!GA | 
[V:3] B_e!fermata!dd | 
[V:4] _D,C,!fermata!G,^F, | 
[V:1] BAGA/B/ | 
[V:2] G=FCC | 
[V:3] dd=ef | 
[V:4] G,D/C/ B,/A,/ G,/=F,/ | 
[V:1] G2!fermata!FB | 
[V:2] C2!fermata!CD | 
[V:3] f/=e//d//=e!fermata!AF | 
[V:4] CC,!fermata!F,D, | 
[V:1] AB!fermata!cc | 
[V:2] _EF!fermata!FF | 
[V:3] cd!fermata!AA | 
[V:4] C,B,,!fermata!F,F, | 
[V:1] d/c/B!fermata!cF | 
[V:2] F/E/_D!fermata!CF | 
[V:3] _AG!fermata!ee | 
[V:4] B,,E,!fermata!_A,,=A,, | 
[V:1] GAB/c/d | 
[V:2] F=ED3/G/ | 
[V:3] =dgff | 
[V:4] =B,,_D,=D,3/=E,/ | 
[V:1] cBc2 | 
[V:2] AB-B_A- | 
[V:3] _edgf- | 
[V:4] ^F,G,/=F,/=E,F,/_E,/ | 
[V:1] B4- | 
[V:2] A_G2F/E/ | 
[V:3] f2e2- | 
[V:4] D,E,/F,/ _G,/_A,/B, | 
[V:1] !fermata!B3 |]  
[V:2] !fermata!F3 |]  
[V:3] ed/c/!fermata!d |]  
[V:4] !fermata!B,,3 |]  



